!!!OTL: 42l. Die ſchoene Anna und der boese Faehnrich.
!!!ODT: 1880
!!!ARE: Europa, Mitteleuropa, Deutschland, Westfalen
!!!SCT: E0042J
!!!TXL: @@DE
!!!YEM: Copyright 1995, estate of Helmut Schaffrath.
**kern	**text
*ICvox	*
*M2/4	*
*k[b-e-a-]	*
*E-:	*
!LO:TX:a:t=Etwas lebhaft.	!
!LO:TX:a:t=Weſtfalen. 1880.	!
{8e-	Als
8g	die
=1	=1
8b-	wunder-
8b-	.
8b-	-ſchö-
8b-	-ne
=2	=2
8a-	An-
8g}	-na
{8f	auf
8g	dem
=3	=3
8b-	Breiten-
8f	.
8f	-ſtei-
8f	-ne
=4	=4
4f}	ſaß.
{8e-	Als
8g	die
=5	=5
8b-	wunder-
8b-	.
8b-	-ſchö-
8b-	-ne
=6	=6
8a-	An-
8g}	-na
{8f	auf
8g	dem
=7	=7
8b-	Breiten-
8f	.
8f	-ſtei-
8f	-ne
=8	=8
4f}	ſaß.
{8ee-L	und
8ccJ	.
=9	=9
8b-	kroll-
8b-	-te
8a-	ih-
8f	-re
=10	=10
4e-}	ſchwarʒ-
{8e-	-braunen
8e-	.
=11	=11
4cc	Haa-
8cc	-re
8cc	ſo
=12	=12
(8b-L	ſchön,
8ee-	.
8ddJ)}	.
{8cc	und
=13	=13
8b-	kroll-
8b-	-te
8a-	ih-
8f	-re
=14	=14
4e-}	ſchwarʒbraunen
{8e-	.
8g	.
=15	=15
4b-	Haa-
8d	-re
8d	ſo
=16	=16
4e-;}	ſchön.
==	==
!!!AGN: erzaehlendes Volks - Lied, Ritter -, Raeuber - Sage, Ballade ?
!!!ONB: ESAC (Essen Associative Code) Database: ERK1
!!!AMT: simple duple
!!!AIN: vox
!!!EED: Helmut Schaffrath
!!!EEV: 1.0
!!!GTL: Ritter- und Raeubersagen
!!!URL-scan: https://rosdok.uni-rostock.de/mcrviewer/recordIdentifier/rosdok_ppn745146120/iview2/phys_0208.iview2?x=-250.1417780126858&y=2101.196892878739&scale=0.5392104374602399&rotation=0&layout=singlePageLayout&logicalDiv=log_0009
!!!ENC: Anna Maria Matuszewska
!!!EEV: 2024/11/25
*-	*-
